resources/svg/thumb-down-fill.svg

<svg fill="currentColor" viewBox="0 0 24 24" xmlns="http://www.w3.org/2000/svg"><path d="M22 15H19V3H22C22.5523 3 23 3.44772 23 4V14C23 14.5523 22.5523 15 22 15ZM16.7071 16.2929L10.3066 22.6934C10.1307 22.8693 9.85214 22.8891 9.65308 22.7398L8.8005 22.1004C8.3158 21.7369 8.09739 21.1174 8.24686 20.5303L9.40017 16H3C1.89543 16 1 15.1046 1 14V11.8957C1 11.6344 1.05118 11.3757 1.15064 11.1342L4.24501 3.61925C4.3993 3.24455 4.76447 3 5.16969 3H16C16.5523 3 17 3.44772 17 4V15.5858C17 15.851 16.8946 16.1054 16.7071 16.2929Z"/></svg>

<svg xmlns="http://www.w3.org/2000/svg" viewBox="0 0 24 24" fill="currentColor">
    <g>
        <path fill="none" d="M0 0h24v24H0z"/>
        <path d="M22 15h-3V3h3a1 1 0 0 1 1 1v10a1 1 0 0 1-1 1zm-5.293 1.293l-6.4 6.4a.5.5 0 0 1-.654.047L8.8 22.1a1.5 1.5 0 0 1-.553-1.57L9.4 16H3a2 2 0 0 1-2-2v-2.104a2 2 0 0 1 .15-.762L4.246 3.62A1 1 0 0 1 5.17 3H16a1 1 0 0 1 1 1v11.586a1 1 0 0 1-.293.707z"/>
    </g>
</svg>
